X:4756
T:El Mio Xuan
R:Xiraldilla
C:Tradicional
S:Msica Tradicional Asturiana, (C) Tello & Tito. Asturies, 2001.
S:http://pagina.de/MusTradAst <telloytito@asturies.org>
A:Asturies
Z:Les cuarenta principales
M:3/8
L:1/8
Q:3/8=68
K:C
G,
|: CEC|D>CB,|DFD|G>FE|DCB,|[1 C3-|C2 G, :|[2 C3-|C2 G|
[Q:3/8=40]
|GFG|A3-|A z A|
[Q:3/8=68]
|B B/A/G/F/|G2 G|A A/G/F/E/|EFG|A G/F/E/D/|C3-|C2 G,|
